svg/glass-empty.svg

<svg xmlns="http://www.w3.org/2000/svg" viewBox="0 0 32 64" enable-background="new 0 0 32 64"><style type="text/css">.st0{fill:#333333;}</style><title>glass-empty</title><desc>Created with Sketch.</desc><path class="st0" d="M30 0h-28c-1.1 0-2 .9-2 2v16c0 8.2 6.1 14.9 14 15.9v26.1h-5c-1.1 0-2 .9-2 2v2h18v-2c0-1.1-.9-2-2-2h-5v-26.1c7.9-1 14-7.7 14-15.9v-16c0-1.1-.9-2-2-2zm-2 18c0 6.6-5.4 12-12 12s-12-5.4-12-12v-14h24v14z"/></svg>

<?xml version="1.0" encoding="utf-8"?>
<!-- Generator: Adobe Illustrator 21.0.0, SVG Export Plug-In . SVG Version: 6.00 Build 0)  -->
<svg version="1.1" id="Layer_1" xmlns="http://www.w3.org/2000/svg" xmlns:xlink="http://www.w3.org/1999/xlink" x="0px" y="0px"
	 viewBox="0 0 32 64" style="enable-background:new 0 0 32 64;" xml:space="preserve">
<style type="text/css">
	.st0{fill:#333333;}
</style>
<title>glass-empty</title>
<desc>Created with Sketch.</desc>
<path class="st0" d="M30,0H2C0.9,0,0,0.9,0,2v16c0,8.2,6.1,14.9,14,15.9V60H9c-1.1,0-2,0.9-2,2v2h18v-2c0-1.1-0.9-2-2-2h-5V33.9
	c7.9-1,14-7.7,14-15.9V2C32,0.9,31.1,0,30,0z M28,18c0,6.6-5.4,12-12,12C9.4,30,4,24.6,4,18V4h24V18z"/>
</svg>
